X:1
T: Moggy on the Shore
C:
R:Reel
Q: 232
K:D
M:4/4
L:1/8
|:dD DF ED B,D|dD Df gf ef|g2 fg ed ef|dA ((3Bcd) AF FA|
dD DF ED B,D|dD Df gf ef|fd eB dF EF|((3DED) DA, B,D D2|
d2 ef gf eg|fd ad bd ad|ga fg ed ef|dA ((3Bcd) AF FA|
d2 ef gf eg|fd ad bd ad|ga fg ed ef|dB AF Ad d2:|
